X:1
T:Carry the Light
T:Carry the Light
T:Adam Geibel
T:Eliza Edmunds Stites Hewitt, 1892
T:Public Domain Courtesy of the Cyber Hymnal™
T:Public Domain Courtesy of the Cyber Hymnal™
C:Adam Geibel
Z:Public Domain
Z:Courtesy of the Cyber Hymnal™
%%score ( 1 2 ) ( 3 4 )
L:1/8
Q:1/4=97
M:6/8
K:Eb
V:1 treble 
V:2 treble 
V:3 bass 
V:4 bass 
V:1
 [GB][GB][GB] [GB][^F=A][GB] | [Ge]2 [EG] [EB]3 | [GB][FA][FA] [FA]3 | [Ec][EB][EB] [EB]3 | %4
w: 1.~Ma- ny in dark- ness are|far a- stray,|Car- ry the light,|car- ry the light,|
w: 2.~Let us u- nite in this|best em- ploy,|Car- ry the light,|car- ry the light;|
w: 3.~Liv- ing for Je- sus, we’ll|work and pray,|Car- ry the light,|car- ry the light;|
w: 4.~Clear- er and clear- er the|day- spring glows,|Car- ry the light,|car- ry the light;|
 [GB][GB][GB] [GB][^F=A][GB] | [Ge]2 [EG] [EB]3 | [E=A][EA][EA] [EA][EG][EA] | [DB]3- [DB]2 z | %8
w: Spread- ing the beams of the|Gos- pel day,|Car- ry the beau- ti- ful|light; *|
w: Tell the good news of sal-|va- tion’s joy,|Car- ry the beau- ti- ful|light, *|
w: Walk- ing with Him in the|shin- ing way,|Car- ry the beau- ti- ful|light; *|
w: Bright- er and bright- er the|morn- ing grows,|Car- ry the beau- ti- ful|light. *|
 [Gd][Gd][Gd] [Gd][Ac][Gd] | [Ge]2 [EG] [EB]3 | [Ad][Ad][Ad] [Ad][Ac][Ad] | [G-e]3 [GB]3 | %12
w: Tell them the gift of the|Fa- ther’s love,|How the dear Sav- ior He|gave; *|
w: Sing- ing of Je- sus, our|songs are bright,|Bright with the bless- ing He|brings; *|
w: O, there’s a glo- ry that|fills the heart,|Sun- shine of par- don and|peace; *|
w: Je- sus is com- ing in|won- drous might,|Com- ing in splen- dor to|reign; *|
 [Ac][Ac][Ac] [ce][Bd][Ac] | [GB]2 [Ge] [GB]3 | [GB][FA][EG] [FA][EG][DF] | E6 || %16
w: Tell them of mer- cy that|smiles a- bove,|Je- sus al- might- y to|save!|
w: Help- ing to scat- ter the|shades of night.|Sing of the Lord’s heal- ing|wings.|
w: Let us the se- cret to|all im- part,|Help- ing the king- dom’s in-|crease.|
w: Sor- row and sigh- ing shall|take their flight,|E- den shall blos- som a-|gain.|
"^Refrain" [EG]3 [EB]3 | [Ec][Ec][Ec] [EB]3 | [Ge][GB][GB] [GB][FA][EG] | (F3 B3) | %20
w: ||||
w: Light! light!|beau- ti- ful light!|Stream- ing from Heav- en’s fair|height; *|
w: ||||
w: ||||
 [EG][EG][EG] [EG][EF][EG] | [EA]2 [EB] [Ec]2 !fermata![Ae] | [GB][Ac][GB] [FA][EG][DF] | E6 |] %24
w: ||||
w: Liv- ing for Je- sus, our|pre- cious Sav- ior,|Car- ry the beau- ti- ful|light.|
w: ||||
w: ||||
V:2
 x6 | x6 | x6 | x6 | x6 | x6 | x6 | x6 | x6 | x6 | x6 | x6 | x6 | x6 | x6 | E6 || x6 | x6 | x6 | %19
 D6 | x6 | x6 | x6 | E6 |] %24
V:3
 [E,B,][E,B,][E,B,] [E,B,][E,C][E,B,] | [E,B,]2 [E,B,] [E,G,]3 | [B,,B,][B,,B,][B,,B,] [B,,B,]3 | %3
 [E,A,][E,G,][E,G,] [E,G,]3 | [E,B,][E,B,][E,B,] [E,B,][E,C][E,B,] | [E,B,]2 [E,B,] [E,G,]3 | %6
 [F,C][F,C][F,C] [F,C][F,B,][F,C] | [B,,B,]3- [B,,B,]2 z | %8
 [B,,B,][B,,B,][B,,B,] [B,,B,][B,,B,][B,,B,] | [E,B,]2 [E,B,] [E,G,]3 | %10
 [B,,B,][B,,B,][B,,B,] [B,,B,][B,,B,][B,,B,] | [E,-B,]3 [E,E]3 | [A,E][A,E][A,E] [A,E][A,E][A,E] | %13
 [E,E]2 [E,B,] [E,B,]3 | [B,,B,][B,,B,][B,,B,] [B,,B,][B,,B,][B,,A,] | [E,G,]6 || [E,B,]3 [E,G,]3 | %17
 [E,A,][E,A,][E,A,] [E,G,]3 | [E,B,][E,B,][E,B,] [E,B,][E,B,][E,B,] | [B,,B,]6 | %20
 [E,B,][E,B,][E,B,] [_D,B,][D,B,][D,B,] | [C,A,]2 [B,,G,] [A,,A,]2 !fermata![A,C] | %22
 B,B,B, [B,,B,][B,,B,][B,,B,] | [E,G,]6 |] %24
V:4
 x6 | x6 | x6 | x6 | x6 | x6 | x6 | x6 | x6 | x6 | x6 | x6 | x6 | x6 | x6 | x6 || x6 | x6 | x6 | %19
 x6 | x6 | x6 | B,B,B, x3 | x6 |] %24

